!!!OTL: 406. Die Linde im Thal.
!!!ARE: Europa, Mitteleuropa, Deutschland
!!!SCT: E0406
!!!TXL: @@DE
!!!YEM: Copyright 1995, estate of Helmut Schaffrath.
**kern	**text
*ICvox	*
*M4/4	*
*met(c)	*
*k[f#]	*
*G:	*
!LO:TX:a:t=Aus 68 Lieder v. Berg u. Newber. c. 1550. Nr. 25.	!
{4d	Es
=1	=1
4g	ſteht
4g	ein
4g	Lind
4a	in
=2	=2
4f#	je-
4e	-nem
4d}	Thal,
{4g	ach
=3	=3
4f#	Gott,
4d	was
4e	thut
4e	ſie
=4	=4
2d	da?
4r}	.
{4d	Sie
=5	=5
4g	will
4g	mir
4.dd	hel-
8cc	-fen
=6	=6
2b	trau-
2a	-ren,
=7	=7
8gL	trau-
8a	.
8b	.
8aJ	.
4g	.
8f#L	.
8eJ	.
=8	=8
4f#}	-ren,
{4d	daß
4e	ich
4f#	ſo-
=9	=9
4.g	-gar
8a	kein
4b/	Buhlen
4a	.
=10	=10
2.g;}	hab.
{4d	Sie
=11	=11
4g	will
4g	mir
4.dd	hel-
8cc	-fen
=12	=12
2b	trau-
2a	-ren,
=13	=13
8gL	trau-
8a	.
8b	.
8aJ	.
4g	.
8f#L	.
8eJ	.
=14	=14
4f#}	-ren,
{4d	daß
4e	ich
4f#	ſo-
=15	=15
4.g	-gar
8a	kein
4b/	Buhlen
4a	.
=16	=16
2.g;}	hab.
==	==
!!!AGN: Liebes - Lied
!!!ONB: ESAC (Essen Associative Code) Database: ERK1
!!!AMT: simple quadruple
!!!AIN: vox
!!!EED: Helmut Schaffrath
!!!EEV: 1.0
!!!GTL: Liebeslieder [Alte (aus dem 13. bis 17. Jahrh.) mit ihrem jungen Nachwuchs]
!!!URL-scan: https://rosdok.uni-rostock.de/mcrviewer/recordIdentifier/rosdok_ppn745177662/iview2/phys_0221.iview2?x=-2131.6244019138758&y=404.5110047743656&scale=0.23831242873432154&rotation=0&layout=singlePageLayout
!!!ENC: Anna Maria Matuszewska
!!!EEV: 2024/09/12
*-	*-
